; HEADER_BLOCK_START
; generated by Creality_Print V6.0.1.1375 on 2025-05-15 at 18:40:55
; total layer number: 150
; filament_density: 1.24
; filament_diameter: 1.75
; max_z_height: 24.00
; HEADER_BLOCK_END

; THUMBNAIL_BLOCK_START

;
; THUMBNAIL_BLOCK_END

; THUMBNAIL_BLOCK_START

;
; THUMBNAIL_BLOCK_END

; external perimeters extrusion width = 0.42mm
; perimeters extrusion width = 0.45mm
; infill extrusion width = 0.45mm
; solid infill extrusion width = 0.42mm
; top infill extrusion width = 0.42mm
; support material extrusion width = 0.42mm
; first layer extrusion width = 0.50mm

; EXECUTABLE_BLOCK_START
EXCLUDE_OBJECT_DEFINE NAME=main_body.stl_id_0_copy_0 CENTER=114.793,107.005 POLYGON=[[19.2539,8.42999],[191.409,8.42999],[210.332,105.579],[210.332,175.579],[145.332,205.579],[65.3316,205.579],[39.4272,129.172],[38.4871,126.359],[37.9621,124.588],[37.189,121.597],[36.8154,119.915],[36.2297,116.756],[19.2539,8.42999]]
M73 P0 R143
M106 S0
M106 P2 S0
;TYPE:Custom
M140 S0
M104 S0 
START_PRINT EXTRUDER_TEMP=220 BED_TEMP=50
T0
M204 S2000
G1 Z3 F600
M83
G92 E0
G1 Z1 F600
G90
G21
M83 ; use relative distances for extrusion
G1 E-.8 F2400
M106 S0
;LAYER_CHANGE
;Z:0.2
;HEIGHT:0.2
;BEFORE_LAYER_CHANGE
;0.2
G92 E0

;AFTER_LAYER_CHANGE
;0.2
;_SET_FAN_SPEED_CHANGING_LAYER
SET_VELOCITY_LIMIT ACCEL=1000 ACCEL_TO_DECEL=1000
SET_VELOCITY_LIMIT SQUARE_CORNER_VELOCITY=20
; printing object main body.stl id:0 copy 0
EXCLUDE_OBJECT_START NAME=main_body.stl_id_0_copy_0
G1 Z.4 F30000
G1 X40.482 Y50.662
G1 Z.2
G1 E.8 F2400
;TYPE:Support
;WIDTH:0.5
G1 F3600
G1 X40.719 Y50.54 E.00963
G1 X40.962 Y50.782 E.01238
G1 X40.571 Y51.197 E.02057
G1 X40.489 Y50.701 E.01813
G1 X40.038 Y50.776 F30000
G1 F3600
G1 X39.799 Y49.332 E.05284
G1 X40.036 Y49.21 E.00963
G1 X41.599 Y50.773 E.07981
G2 X40.276 Y52.216 I12.954 J13.205 E.07071
G1 X40.044 Y50.815 E.05125
G1 X39.593 Y50.89 F30000
G1 F3600
G1 X39.115 Y48.002 E.10568
G1 X39.353 Y47.88 E.00963
G1 X42.236 Y50.764 E.14723
G2 X39.996 Y53.321 I14.541 J15.001 E.12288
G1 X39.6 Y50.93 E.08752
G1 X39.149 Y51.004 F30000
G1 F3600
G1 X38.432 Y46.673 E.15852
G1 X38.669 Y46.551 E.00963
G1 X42.873 Y50.755 E.21466
G2 X39.718 Y54.441 I18.661 J19.167 E.17545
G1 X39.155 Y51.044 E.12434
G1 X38.705 Y51.118 F30000
G1 F3600
G1 X37.749 Y45.343 E.21137
G1 X37.986 Y45.221 E.00963
G1 X43.51 Y50.745 E.28209
G2 X39.44 Y55.561 I23.287 J23.811 E.22802
G1 X38.711 Y51.158 E.16116
G1 X38.26 Y51.232 F30000
G1 F3600
G1 X37.065 Y44.013 E.26421
G1 X37.302 Y43.891 E.00963
G1 X44.147 Y50.736 E.34952
G2 X39.162 Y56.682 I28.011 J28.552 E.28059
G1 X38.267 Y51.272 E.19798
G1 X37.816 Y51.346 F30000
G1 F3600
G1 X36.382 Y42.683 E.31705
G1 X36.619 Y42.561 E.00963
G1 X44.785 Y50.727 E.41694
G2 X38.884 Y57.802 I32.763 J33.322 E.33317
G1 X37.822 Y51.386 E.2348
G1 X37.371 Y51.461 F30000
G1 F3600
G1 X35.699 Y41.353 E.36989
G1 X35.936 Y41.232 E.00963
G1 X45.422 Y50.718 E.48437
G2 X38.612 Y58.959 I38.657 J38.875 E.38661
G1 X37.378 Y51.5 E.27298
G1 X36.927 Y51.575 F30000
G1 F3600
G1 X35.015 Y40.024 E.42273
G1 X35.252 Y39.902 E.00963
G1 X46.059 Y50.708 E.5518
G2 X38.362 Y60.246 I44.659 J43.913 E.44324
G1 X36.933 Y51.614 E.31592
G1 X36.482 Y51.689 F30000
G1 F3600
G1 X34.332 Y38.694 E.47557
G1 X34.569 Y38.572 E.00963
G1 X46.696 Y50.699 E.61923
G2 X38.113 Y61.54 I42.291 J42.304 E.50037
G1 X36.489 Y51.728 E.35907
G1 X36.038 Y51.803 F30000
G1 F3600
G1 X33.649 Y37.364 E.52841
G1 X33.886 Y37.242 E.00963
G1 X47.333 Y50.69 E.68665
G2 X37.863 Y62.833 I42.405 J42.833 E.55753
G1 X36.045 Y51.842 E.40223
G1 X35.594 Y51.917 F30000
G1 F3600
G1 X32.965 Y36.034 E.58126
G1 X33.202 Y35.913 E.00963
G1 X47.97 Y50.681 E.75408
G2 X37.614 Y64.126 I43.525 J44.235 E.61471
G1 X35.6 Y51.956 E.44539
G1 X35.149 Y52.031 F30000
G1 F3600
G1 X32.282 Y34.705 E.6341
G1 X32.519 Y34.583 E.00963
G1 X48.608 Y50.671 E.82151
G2 X37.365 Y65.42 I45.146 J46.074 E.67191
G1 X35.156 Y52.071 E.48854
G1 X34.705 Y52.145 F30000
G1 F3600
G1 X31.598 Y33.375 E.68694
G1 X31.836 Y33.253 E.00963
G1 X49.245 Y50.662 E.88894
G2 X37.116 Y66.713 I47.049 J48.161 E.72912
G1 X34.711 Y52.185 E.5317
G1 X34.26 Y52.259 F30000
G1 F3600
G1 X30.915 Y32.045 E.73978
G1 X31.152 Y31.923 E.00963
G1 X49.882 Y50.653 E.95637
G2 X41.263 Y60.751 I59.125 J59.191 E.47985
M73 P0 R142
G1 X36.866 Y68.006 E.30631
M73 P0 R142
G1 X34.267 Y52.299 E.57486
G1 X33.816 Y52.373 F30000
G1 F3600
G1 X30.232 Y30.715 E.79262
G1 X30.469 Y30.593 E.00963
G1 X50.519 Y50.644 E1.02379
G2 X45.129 Y56.387 I51.504 J53.734 E.2845
G2 X41.648 Y60.998 I41.947 J35.291 E.20873
G1 X36.617 Y69.3 E.35048
G1 X33.823 Y52.413 E.61801
G1 X33.372 Y52.487 F30000
G1 F3600
G1 X29.548 Y29.386 E.84546
G1 X29.785 Y29.264 E.00963
G1 X51.156 Y50.634 E1.09122
G2 X45.486 Y56.673 I54.155 J56.533 E.29922
G2 X42.032 Y61.245 I41.59 J35.004 E.20698
G1 X36.57 Y70.294 E.38164
G1 X36.311 Y70.252 E.00945
G1 X33.378 Y52.527 E.64867
G1 X32.927 Y52.602 F30000
G1 F3600
G1 X28.865 Y28.056 E.8983
G1 X29.102 Y27.934 E.00963
G1 X51.793 Y50.625 E1.15865
G1 X46.07 Y56.691 E.30113
G2 X42.417 Y61.492 I193.426 J150.948 E.21782
G1 X37.126 Y70.224 E.36865
G2 X36.365 Y71.801 I14.495 J7.964 E.06323
G1 X36.098 Y71.764 E.00972
G1 X32.934 Y52.641 E.69986
G1 X32.483 Y52.716 F30000
G1 F3600
G1 X28.182 Y26.726 E.95114
G1 X28.419 Y26.604 E.00963
G1 X52.43 Y50.616 E1.22608
G1 X46.41 Y56.996 E.31672
G2 X42.802 Y61.74 I202.905 J158.113 E.2152
G1 X37.523 Y70.451 E.36777
G2 X36.154 Y73.326 I26.443 J14.35 E.11503
G1 X35.888 Y73.289 E.00972
G1 X32.489 Y52.755 E.7515
G1 X32.038 Y52.83 F30000
G1 F3600
G1 X27.498 Y25.396 E1.00399
G1 X27.735 Y25.274 E.00963
G1 X53.068 Y50.607 E1.2935
G1 X46.751 Y57.301 E.33232
G2 X43.186 Y61.987 I213.953 J166.473 E.21259
G1 X37.92 Y70.678 E.3669
G2 X35.943 Y74.851 I38.389 J20.736 E.16683
G1 X35.677 Y74.815 E.00972
G1 X32.045 Y52.869 E.80314
G1 X31.594 Y52.944 F30000
G1 F3600
G1 X26.815 Y24.066 E1.05683
G1 X27.052 Y23.945 E.00963
G1 X53.705 Y50.597 E1.36093
G1 X47.092 Y57.606 E.34791
G2 X43.571 Y62.234 I226.999 J176.352 E.20997
G1 X38.317 Y70.904 E.36603
G2 X35.759 Y76.422 I193.52 J93.088 E.2196
G1 X35.475 Y76.398 E.01027
G1 X31.6 Y52.983 E.8569
G1 X31.149 Y53.058 F30000
G1 F3600
G1 X26.131 Y22.737 E1.10967
G1 X26.369 Y22.615 E.00963
G1 X54.342 Y50.588 E1.42836
G1 X47.433 Y57.911 E.36351
G2 X43.956 Y62.481 I242.598 J188.173 E.20735
G1 X38.714 Y71.131 E.36515
G2 X35.602 Y78.272 I71.447 J35.388 E.2814
G1 X35.318 Y78.248 E.01027
G1 X31.156 Y53.097 E.92046
G1 X30.705 Y53.172 F30000
G1 F3600
G1 X25.448 Y21.407 E1.16251
G1 X25.685 Y21.285 E.00963
G1 X54.994 Y50.594 E1.49657
G1 X47.773 Y58.216 E.37908
G2 X44.34 Y62.728 I261.562 J202.554 E.20473
G1 X39.112 Y71.357 E.36428
G2 X35.445 Y80.123 I65.666 J32.618 E.34333
G1 X35.161 Y80.099 E.01027
G1 X30.712 Y53.211 E.98402
G1 X30.261 Y53.286 F30000
G1 F3600
G1 X24.765 Y20.077 E1.21535
G1 X25.002 Y19.955 E.00963
G1 X55.673 Y50.627 E1.56613
G2 X55.021 Y51.2 I5.101 J6.457 E.03136
G1 X48.114 Y58.521 E.3634
G2 X44.725 Y62.976 I285.074 J220.395 E.20212
G1 X39.509 Y71.584 E.36341
G2 X35.288 Y81.974 I68.003 J33.677 E.40531
G1 X35.004 Y81.95 E.01027
G1 X30.267 Y53.326 E1.04758
G1 X29.816 Y53.4 F30000
G1 F3600
G1 X24.081 Y18.747 E1.26819
G1 X24.319 Y18.625 E.00963
G1 X56.345 Y50.652 E1.63534
G2 X55.346 Y51.522 I7.735 J9.898 E.04788
G1 X48.455 Y58.825 E.36252
G2 X45.11 Y63.223 I314.948 J243.076 E.1995
G1 X39.906 Y71.81 E.36253
G2 X35.131 Y83.825 I72.713 J35.855 E.46732
G1 X34.847 Y83.801 E.01027
G1 X29.823 Y53.44 E1.11114
G1 X29.372 Y53.514 F30000
G1 F3600
G1 X23.398 Y17.418 E1.32103
G1 X23.635 Y17.296 E.00963
G1 X57.018 Y50.678 E1.70456
G2 X55.67 Y51.845 I10.37 J13.339 E.0644
G1 X48.796 Y59.13 E.36165
G2 X45.494 Y63.47 I354.185 J272.88 E.19688
G1 X40.303 Y72.037 E.36166
G2 X34.974 Y85.676 I78.455 J38.516 E.52934
G1 X34.69 Y85.652 E.01027
G1 X29.378 Y53.554 E1.1747
G1 X28.927 Y53.628 F30000
G1 F3600
G1 X22.715 Y16.088 E1.37388
G1 X22.952 Y15.966 E.00963
G1 X57.69 Y50.704 E1.77377
G2 X55.994 Y52.167 I13.005 J16.782 E.08092
G1 X49.137 Y59.435 E.36078
G2 X45.879 Y63.717 I407.835 J313.648 E.19426
G1 X40.7 Y72.263 E.36079
G2 X38.414 Y77.134 I464.772 J221.114 E.19426
G1 X35.146 Y86.576 E.36079
G2 X34.871 Y87.735 I10.773 J3.171 E.04304
G1 X34.57 Y87.726 E.01084
G1 X28.934 Y53.668 E1.24643
G1 X28.483 Y53.742 F30000
G1 F3600
G1 X22.031 Y14.758 E1.42672
G1 X22.268 Y14.636 E.00963
G1 X58.362 Y50.729 E1.84298
G2 X56.318 Y52.49 I15.64 J20.223 E.09743
G1 X49.477 Y59.74 E.35991
G2 X46.264 Y63.964 I485.444 J372.642 E.19165
G1 X41.098 Y72.49 E.35991
G2 X38.842 Y77.294 I553.185 J262.57 E.19164
G1 X35.582 Y86.714 E.35991
G2 X34.796 Y90.085 I31.336 J9.08 E.12504
G1 X34.496 Y90.076 E.01084
G1 X28.49 Y53.782 E1.32826
G1 X28.039 Y53.857 F30000
G1 F3600
G1 X21.348 Y13.428 E1.47956
G1 X21.585 Y13.306 E.00963
G1 X59.034 Y50.755 E1.91219
G2 X56.642 Y52.812 I18.276 J23.666 E.11395
G1 X49.818 Y60.045 E.35904
G2 X46.648 Y64.212 I607.61 J465.534 E.18903
G1 X41.495 Y72.716 E.35904
G2 X39.27 Y77.455 I692.247 J327.799 E.18902
G1 X36.018 Y86.852 E.35904
G2 X34.763 Y92.567 I129.308 J31.39 E.21126
G1 X34.446 Y92.574 E.01144
G1 X28.045 Y53.896 E1.41549
G1 X27.594 Y53.971 F30000
G1 F3600
G1 X20.665 Y12.098 E1.5324
G1 X20.902 Y11.977 E.00963
G1 X59.706 Y50.781 E1.98141
G2 X56.966 Y53.135 I20.911 J27.108 E.13047
G1 X50.159 Y60.35 E.35817
G2 X47.033 Y64.459 I827.709 J632.928 E.18641
G1 X41.892 Y72.943 E.35817
G2 X39.698 Y77.616 I942.702 J445.309 E.1864
G1 X36.454 Y86.991 E.35817
G2 X34.831 Y95.777 I67.77 J17.06 E.32283
G1 X34.514 Y95.784 E.01144
G1 X27.601 Y54.01 E1.52879
G1 X27.15 Y54.085 F30000
G1 F3600
G1 X19.981 Y10.769 E1.58524
G1 X20.218 Y10.647 E.00963
G1 X60.378 Y50.807 E2.05062
G2 X57.291 Y53.457 I23.553 J30.559 E.14699
G1 X50.5 Y60.655 E.3573
G2 X47.417 Y64.706 I1342.394 J1024.425 E.18379
G1 X42.289 Y73.169 E.35729
G2 X40.126 Y77.777 I1527.047 J719.529 E.18379
G1 X36.889 Y87.129 E.3573
G2 X34.899 Y98.987 I74.908 J18.672 E.43459
G1 X34.582 Y98.994 E.01144
G1 X27.156 Y54.124 E1.64209
G1 X26.705 Y54.199 F30000
G1 F3600
G1 X19.227 Y9.009 E1.65383
G1 X61.05 Y50.832 E2.13558
G2 X57.615 Y53.78 I26.182 J33.994 E.16351
G1 X50.84 Y60.96 E.35642
G2 X47.802 Y64.953 I35.972 J30.518 E.18126
G1 X42.686 Y73.396 E.35642
G2 X40.554 Y77.938 I41.672 J22.33 E.18126
G1 X37.325 Y87.267 E.35643
G2 X36.195 Y92.155 I45.368 J13.069 E.18126
G1 X34.996 Y101.954 E.35642
G3 X34.954 Y104.043 I-140.537 J-1.785 E.07544
G1 X26.712 Y54.238 E1.82271
G1 E-.56 F2400
;WIPE_START
G1 F3600
G1 X26.385 Y52.265 E-.24
;WIPE_END
G1 X28.902 Y59.471 Z.6 F30000
G1 X65.21 Y163.411 Z.6
G1 Z.2
G1 E.8 F2400
G1 F3600
G1 X67.681 Y165.099 E.10803
G1 X76.403 Y169.792 E.35762
G1 X85.723 Y173.223 E.3586
G1 X95.441 Y175.31 E.35887
G2 X105.321 Y176.008 I14.863 J-140.22 E.35767
G1 X145.453 Y176.008 E1.44903
G1 X145.453 Y205.7 E1.07209
G1 X65.21 Y205.7 E2.89725
G1 X65.21 Y163.451 E1.52545
G1 X65.667 Y164.277 F30000
G1 F3600
G1 X67.433 Y165.483 E.0772
G1 X76.186 Y170.196 E.35893
G1 X85.581 Y173.658 E.36151
G1 X95.393 Y175.765 E.36236
G2 X105.312 Y176.465 I14.92 J-140.849 E.35912
G1 X144.996 Y176.465 E1.43282
G1 X144.996 Y205.243 E1.03909
G1 X65.667 Y205.243 E2.86425
G1 X65.667 Y164.317 E1.47769
G1 X66.124 Y165.143 F30000
G1 F3600
G1 X67.185 Y165.867 E.04638
G1 X75.983 Y170.606 E.36082
G1 X85.438 Y174.092 E.36383
G1 X95.345 Y176.22 E.36585
G2 X105.304 Y176.922 I14.978 J-141.5 E.36057
G1 X144.539 Y176.922 E1.4166
G1 X144.539 Y204.786 E1.00608
G1 X66.124 Y204.786 E2.83124
G1 X66.124 Y165.183 E1.42992
G1 X66.581 Y166.009 F30000
G1 F3600
G1 X66.937 Y166.252 E.01555
G1 X75.781 Y171.016 E.3627
G1 X85.295 Y174.527 E.36616
G1 X95.296 Y176.675 E.36934
G2 X105.296 Y177.379 I15.032 J-142.095 E.36203
G1 X144.082 Y177.379 E1.40039
G1 X144.082 Y204.329 E.97307
G1 X66.581 Y204.329 E2.79823
M73 P0 R141
G1 X66.581 Y166.049 E1.38216
M73 P0 R141
G1 X67.038 Y166.83 F30000
G1 F3600
G1 X75.579 Y171.426 E.35016
G1 X85.152 Y174.961 E.36848
G1 X95.248 Y177.129 E.37283
G2 X105.288 Y177.836 I15.085 J-142.676 E.36348
G1 X143.625 Y177.836 E1.38418
G1 X143.625 Y203.872 E.94007
G1 X67.038 Y203.872 E2.76523
G1 X67.038 Y166.87 E1.33599
G1 X67.496 Y167.595 F30000
G1 F3600
G1 X75.376 Y171.836 E.32312
G1 X85.009 Y175.396 E.37081
G1 X95.2 Y177.584 E.37632
G2 X105.28 Y178.293 I15.138 J-143.253 E.36493
G1 X143.168 Y178.293 E1.36797
G1 X143.168 Y203.415 E.90706
G1 X67.496 Y203.415 E2.73222
G1 X67.496 Y167.635 E1.29187
G1 X67.953 Y168.36 F30000
G1 F3600
G1 X75.174 Y172.246 E.29608
G1 X84.867 Y175.83 E.37314
G1 X95.151 Y178.039 E.3798
G2 X105.272 Y178.75 I15.191 J-143.827 E.36639
G1 X142.711 Y178.75 E1.35176
G1 X142.711 Y202.958 E.87405
G1 X67.953 Y202.958 E2.69921
G1 X67.953 Y168.4 E1.24774
G1 X68.41 Y169.125 F30000
G1 F3600
G1 X74.971 Y172.656 E.26904
G1 X84.724 Y176.265 E.37546
G1 X95.103 Y178.494 E.38329
G2 X105.264 Y179.207 I15.243 J-144.402 E.36784
M73 P1 R141
G1 X142.254 Y179.207 E1.33555
M73 P1 R141
G1 X142.254 Y202.501 E.84105
G1 X68.41 Y202.501 E2.66621
G1 X68.41 Y169.165 E1.20361
G1 X68.867 Y169.89 F30000
G1 F3600
G1 X74.769 Y173.067 E.242
G1 X84.581 Y176.699 E.37779
G1 X95.055 Y178.949 E.38678
G2 X105.256 Y179.664 I15.296 J-144.973 E.36929
G1 X141.796 Y179.664 E1.31934
G1 X141.796 Y202.044 E.80804
G1 X68.867 Y202.044 E2.6332
G1 X68.867 Y169.93 E1.15949
G1 X69.324 Y170.655 F30000
G1 F3600
G1 X74.566 Y173.477 E.21496
G1 X84.438 Y177.134 E.38011
G1 X95.007 Y179.403 E.39027
G2 X105.248 Y180.121 I15.348 J-145.544 E.37075
G1 X141.339 Y180.121 E1.30313
G1 X141.339 Y201.587 E.77503
G1 X69.324 Y201.587 E2.60019
G1 X69.324 Y170.695 E1.11536
G1 X69.781 Y171.42 F30000
G1 F3600
G1 X74.364 Y173.887 E.18792
G1 X84.296 Y177.569 E.38244
G1 X94.958 Y179.858 E.39376
G2 X105.239 Y180.578 I15.401 J-146.115 E.3722
G1 X140.882 Y180.578 E1.28692
G1 X140.882 Y201.13 E.74203
G1 X69.781 Y201.13 E2.56719
G1 X69.781 Y171.46 E1.07124
G1 X70.238 Y172.185 F30000
G1 F3600
G1 X74.162 Y174.297 E.16088
G1 X84.153 Y178.003 E.38476
G1 X94.91 Y180.313 E.39725
G2 X105.231 Y181.035 I15.453 J-146.686 E.37365
G1 X140.425 Y181.035 E1.27071
G1 X140.425 Y200.673 E.70902
G1 X70.238 Y200.673 E2.53418
G1 X70.238 Y172.225 E1.02711
G1 X70.695 Y172.951 F30000
G1 F3600
G1 X73.959 Y174.707 E.13384
G1 X84.01 Y178.438 E.38709
G1 X94.862 Y180.768 E.40074
G2 X105.223 Y181.493 I15.505 J-147.258 E.37511
G1 X139.968 Y181.493 E1.2545
G1 X139.968 Y200.216 E.67601
G1 X70.695 Y200.216 E2.50117
G1 X70.695 Y172.991 E.98299
G1 X71.152 Y173.716 F30000
G1 F3600
G1 X73.757 Y175.117 E.1068
G1 X83.867 Y178.872 E.38942
G1 X94.813 Y181.223 E.40423
G2 X105.215 Y181.95 I15.558 J-147.829 E.37656
G1 X139.511 Y181.95 E1.23829
G1 X139.511 Y199.758 E.64301
G1 X71.152 Y199.758 E2.46817
G1 X71.152 Y173.756 E.93886
G1 X71.609 Y174.481 F30000
G1 F3600
G1 X73.554 Y175.527 E.07975
G1 X83.725 Y179.307 E.39174
G1 X94.765 Y181.677 E.40771
G2 X105.207 Y182.407 I15.61 J-148.4 E.37801
G1 X139.054 Y182.407 E1.22208
G1 X139.054 Y199.301 E.61
G1 X71.609 Y199.301 E2.43516
G1 X71.609 Y174.521 E.89474
G1 X72.066 Y175.246 F30000
G1 F3600
G1 X73.352 Y175.937 E.05271
G1 X83.582 Y179.741 E.39407
G1 X94.717 Y182.132 E.4112
G2 X105.199 Y182.864 I15.663 J-148.97 E.37946
G1 X138.597 Y182.864 E1.20587
G1 X138.597 Y198.844 E.57699
G1 X72.066 Y198.844 E2.40215
G1 X72.066 Y175.286 E.85061
G1 X72.523 Y176.011 F30000
G1 F3600
G1 X73.15 Y176.348 E.02567
G1 X83.439 Y180.176 E.39639
G1 X94.669 Y182.587 E.41469
G2 X105.191 Y183.321 I15.715 J-149.541 E.38092
G1 X138.14 Y183.321 E1.18966
G1 X138.14 Y198.387 E.54399
G1 X72.523 Y198.387 E2.36915
G1 X72.523 Y176.051 E.80649
G1 X72.98 Y176.773 F30000
G1 F3600
G1 X73.461 Y176.989 E.01904
G1 X83.839 Y180.767 E.39876
G1 X94.62 Y183.042 E.39784
G2 X105.183 Y183.778 I15.767 J-150.111 E.38237
G1 X137.683 Y183.778 E1.17344
G1 X137.683 Y197.93 E.51098
G1 X72.98 Y197.93 E2.33614
G1 X72.98 Y176.813 E.76247
G1 X73.438 Y177.468 F30000
G1 F3600
G1 X83.154 Y181.045 E.37383
G1 X94.572 Y183.497 E.42167
G2 X105.175 Y184.235 I15.82 J-150.681 E.38382
G1 X137.226 Y184.235 E1.15723
G1 X137.226 Y197.473 E.47797
G1 X73.438 Y197.473 E2.30313
G1 X73.438 Y177.508 E.72087
G1 X73.895 Y178.123 F30000
G1 F3600
G1 X83.011 Y181.479 E.35075
G1 X94.524 Y183.951 E.42516
