; HEADER_BLOCK_START
; generated by Creality_Print V6.0.1.1375 on 2025-05-15 at 18:30:14
; total layer number: 125
; filament_density: 1.24
; filament_diameter: 1.75
; max_z_height: 22.00
; HEADER_BLOCK_END

; THUMBNAIL_BLOCK_START

;
; THUMBNAIL_BLOCK_END

; THUMBNAIL_BLOCK_START

;
; THUMBNAIL_BLOCK_END

; external perimeters extrusion width = 0.42mm
; perimeters extrusion width = 0.45mm
; infill extrusion width = 0.45mm
; solid infill extrusion width = 0.42mm
; top infill extrusion width = 0.42mm
; support material extrusion width = 0.42mm
; first layer extrusion width = 0.50mm

; external perimeters extrusion width = 0.42mm
; perimeters extrusion width = 0.45mm
; infill extrusion width = 0.45mm
; solid infill extrusion width = 0.42mm
; top infill extrusion width = 0.42mm
; support material extrusion width = 0.42mm
; first layer extrusion width = 0.50mm

; external perimeters extrusion width = 0.42mm
; perimeters extrusion width = 0.45mm
; infill extrusion width = 0.45mm
; solid infill extrusion width = 0.42mm
; top infill extrusion width = 0.42mm
; support material extrusion width = 0.42mm
; first layer extrusion width = 0.50mm

; external perimeters extrusion width = 0.42mm
; perimeters extrusion width = 0.45mm
; infill extrusion width = 0.45mm
; solid infill extrusion width = 0.42mm
; top infill extrusion width = 0.42mm
; support material extrusion width = 0.42mm
; first layer extrusion width = 0.50mm

; EXECUTABLE_BLOCK_START
EXCLUDE_OBJECT_DEFINE NAME=arm_1.stl_id_0_copy_0 CENTER=140.541,121.439 POLYGON=[[124.291,118.939],[154.291,118.939],[154.458,118.945],[154.618,118.961],[154.789,118.989],[154.938,119.024],[155.111,119.078],[155.248,119.13],[155.419,119.208],[155.541,119.274],[155.706,119.378],[155.813,119.456],[155.968,119.585],[156.059,119.671],[156.201,119.825],[156.275,119.917],[156.399,120.094],[156.456,120.189],[156.559,120.387],[156.601,120.483],[156.679,120.699],[156.706,120.792],[156.757,121.023],[156.77,121.113],[156.79,121.356],[156.791,121.439],[156.779,121.689],[156.77,121.766],[156.723,122.019],[156.706,122.086],[156.624,122.338],[156.601,122.396],[156.484,122.641],[156.456,122.689],[156.304,122.922],[156.275,122.961],[156.088,123.177],[156.059,123.207],[155.841,123.401],[155.813,123.423],[155.565,123.59],[155.541,123.604],[155.267,123.741],[155.248,123.749],[154.952,123.85],[154.938,123.854],[154.625,123.917],[154.618,123.918],[154.291,123.939],[124.291,123.939],[124.291,118.939]]
EXCLUDE_OBJECT_DEFINE NAME=micro-metal-gearmotor-bracket_v1.stl_id_1_copy_0 CENTER=86.8943,92.4131 POLYGON=[[73.6443,93.9131],[73.6491,93.7109],[73.6627,93.5181],[73.6876,93.3083],[73.7177,93.1265],[73.7641,92.9111],[73.8089,92.7417],[73.878,92.5231],[73.9355,92.367],[74.0284,92.1476],[74.0963,92.0057],[74.2137,91.7881],[74.2901,91.661],[74.4323,91.4479],[74.515,91.3357],[74.6824,91.1299],[74.7692,91.0328],[74.9615,90.8372],[79.3943,86.6631],[94.3943,86.6631],[98.8271,90.8372],[99.0194,91.0328],[99.1062,91.1299],[99.2736,91.3357],[99.3562,91.4479],[99.4985,91.661],[99.5749,91.7881],[99.6922,92.0057],[99.7602,92.1476],[99.8531,92.367],[99.9105,92.5231],[99.9797,92.7417],[100.024,92.9111],[100.071,93.1265],[100.101,93.3083],[100.126,93.5181],[100.139,93.7109],[100.144,93.9131],[100.139,94.1153],[100.126,94.3081],[100.101,94.5179],[100.071,94.6998],[100.024,94.9151],[99.9797,95.0846],[99.9105,95.3031],[99.8531,95.4592],[99.7602,95.6786],[99.6922,95.8205],[99.5749,96.0381],[99.4985,96.1652],[99.3562,96.3783],[99.2736,96.4905],[99.1062,96.6963],[99.0194,96.7934],[98.8271,96.989],[98.7381,97.0714],[98.5215,97.2538],[98.4322,97.3221],[98.192,97.4884],[98.1044,97.5433],[97.8418,97.6907],[97.7574,97.733],[97.4739,97.8587],[97.3943,97.8896],[97.2049,97.9554],[97.0917,97.991],[97.016,98.0121],[96.8293,98.059],[96.6986,98.0863],[96.6441,98.0963],[96.457,98.1252],[96.2983,98.1439],[96.2699,98.1459],[96.085,98.1585],[95.9046,98.1631],[95.8943,98.1631],[77.8943,98.1631],[77.884,98.1631],[77.7036,98.1585],[77.5187,98.1459],[77.4903,98.1439],[77.3316,98.1252],[77.1445,98.0963],[77.09,98.0863],[76.9593,98.059],[76.7726,98.0121],[76.6969,97.991],[76.5837,97.9554],[76.3943,97.8896],[76.3147,97.8587],[76.0312,97.733],[75.9468,97.6907],[75.6842,97.5433],[75.5966,97.4884],[75.3563,97.3221],[75.2671,97.2538],[75.0505,97.0714],[74.9615,96.989],[74.7692,96.7934],[74.6824,96.6963],[74.515,96.4905],[74.4323,96.3783],[74.2901,96.1652],[74.2137,96.0381],[74.0963,95.8205],[74.0284,95.6786],[73.9355,95.4592],[73.878,95.3031],[73.8089,95.0846],[73.7641,94.9151],[73.7177,94.6998],[73.6876,94.5179],[73.6627,94.3081],[73.6491,94.1153],[73.6443,93.9131]]
EXCLUDE_OBJECT_DEFINE NAME=micro-metal-gearmotor-bracket_v1.stl_id_2_copy_0 CENTER=86.7299,74.6196 POLYGON=[[73.4799,76.1196],[73.4847,75.9174],[73.4983,75.7246],[73.5232,75.5148],[73.5533,75.333],[73.5997,75.1176],[73.6445,74.9482],[73.7137,74.7296],[73.7711,74.5735],[73.864,74.3541],[73.932,74.2122],[74.0493,73.9946],[74.1257,73.8675],[74.268,73.6544],[74.3506,73.5422],[74.518,73.3365],[74.6048,73.2393],[74.7971,73.0438],[79.2299,68.8696],[94.2299,68.8696],[98.6627,73.0438],[98.855,73.2393],[98.9418,73.3365],[99.1092,73.5422],[99.1919,73.6544],[99.3341,73.8675],[99.4105,73.9946],[99.5279,74.2122],[99.5958,74.3541],[99.6887,74.5735],[99.7462,74.7296],[99.8153,74.9482],[99.8601,75.1176],[99.9065,75.333],[99.9367,75.5148],[99.9615,75.7246],[99.9751,75.9174],[99.9799,76.1196],[99.9751,76.3218],[99.9615,76.5147],[99.9367,76.7245],[99.9065,76.9063],[99.8601,77.1216],[99.8153,77.2911],[99.7462,77.5097],[99.6887,77.6657],[99.5958,77.8851],[99.5279,78.027],[99.4105,78.2446],[99.3341,78.3718],[99.1919,78.5849],[99.1092,78.697],[98.9418,78.9028],[98.855,79],[98.6627,79.1955],[98.5737,79.278],[98.3571,79.4603],[98.2679,79.5286],[98.0276,79.6949],[97.94,79.7498],[97.6774,79.8972],[97.593,79.9395],[97.3095,80.0652],[97.2299,80.0961],[97.0405,80.1619],[96.9273,80.1975],[96.8516,80.2186],[96.6649,80.2655],[96.5342,80.2928],[96.4798,80.3028],[96.2927,80.3317],[96.1339,80.3504],[96.1055,80.3524],[95.9206,80.365],[95.7402,80.3696],[95.7299,80.3696],[77.7299,80.3696],[77.7196,80.3696],[77.5392,80.365],[77.3543,80.3524],[77.3259,80.3504],[77.1672,80.3317],[76.9801,80.3028],[76.9256,80.2928],[76.795,80.2655],[76.6082,80.2186],[76.5325,80.1975],[76.4193,80.1619],[76.2299,80.0961],[76.1503,80.0652],[75.8668,79.9395],[75.7824,79.8972],[75.5198,79.7498],[75.4322,79.6949],[75.192,79.5286],[75.1027,79.4603],[74.8861,79.278],[74.7971,79.1955],[74.6048,79],[74.518,78.9028],[74.3506,78.697],[74.268,78.5849],[74.1257,78.3718],[74.0493,78.2446],[73.932,78.027],[73.864,77.8851],[73.7711,77.6657],[73.7137,77.5097],[73.6445,77.2911],[73.5997,77.1216],[73.5533,76.9063],[73.5232,76.7245],[73.4983,76.5147],[73.4847,76.3218],[73.4799,76.1196]]
EXCLUDE_OBJECT_DEFINE NAME=axe.stl_id_3_copy_0 CENTER=110,110 POLYGON=[[50,110],[96.5313,51.5313],[100.056,50.8298],[103.616,50.3406],[107.2,50.0654],[110.793,50.0052],[114.384,50.1604],[117.958,50.5301],[121.505,51.1133],[125.01,51.9077],[128.461,52.9106],[131.846,54.1183],[135.152,55.5264],[138.368,57.13],[141.483,58.9233],[144.484,60.8999],[147.362,63.0526],[150.106,65.3737],[152.706,67.8549],[155.153,70.4874],[157.437,73.2616],[159.552,76.1676],[161.488,79.195],[163.24,82.3329],[164.801,85.5701],[166.166,88.8949],[167.328,92.2955],[168.286,95.7596],[169.034,99.2747],[169.57,102.828],[169.892,106.408],[170,110],[123.469,168.469],[119.944,169.17],[116.384,169.659],[112.8,169.935],[109.207,169.995],[105.616,169.84],[102.042,169.47],[98.4953,168.887],[94.9904,168.092],[91.5392,167.089],[88.1544,165.882],[84.8479,164.474],[81.6316,162.87],[78.5171,161.077],[75.5156,159.1],[72.6377,156.947],[69.894,154.626],[67.2941,152.145],[64.8474,149.513],[62.5628,146.738],[60.4483,143.832],[58.5116,140.805],[56.7597,137.667],[55.1987,134.43],[53.8344,131.105],[52.6716,127.705],[51.7144,124.24],[50.9664,120.725],[50.4301,117.172],[50.1076,113.592],[50,110]]
M73 P0 R36
M106 S0
M106 P2 S0
;TYPE:Custom
M140 S0
M104 S0 
START_PRINT EXTRUDER_TEMP=220 BED_TEMP=50
T0
M204 S2000
G1 Z3 F600
M83
G92 E0
G1 Z1 F600
G90
G21
M83 ; use relative distances for extrusion
G1 E-.8 F2400
M106 S0
;LAYER_CHANGE
;Z:0.2
;HEIGHT:0.2
;BEFORE_LAYER_CHANGE
;0.2
G92 E0

;AFTER_LAYER_CHANGE
;0.2
;_SET_FAN_SPEED_CHANGING_LAYER
SET_VELOCITY_LIMIT ACCEL=1000 ACCEL_TO_DECEL=1000
SET_VELOCITY_LIMIT SQUARE_CORNER_VELOCITY=20
; printing object arm 1.stl id:0 copy 0
EXCLUDE_OBJECT_START NAME=arm_1.stl_id_0_copy_0
G1 Z.4 F30000
G1 X122.984 Y115.718
G1 Z.2
G1 E.8 F2400
;TYPE:Support
;WIDTH:0.5
G1 F3600
G3 X124.421 Y115.248 I1.312 J1.581 E.05589
G3 X125.95 Y118.511 I-.131 J2.051 E.15861
G1 X123.997 Y118.511 E.07054
G1 X123.863 Y118.645 E.00684
G1 X123.863 Y119.307 E.02393
G3 X122.953 Y115.743 I.433 J-2.008 E.16449
G1 X123.341 Y116.064 F30000
G1 F3600
G1 X123.437 Y115.952 E.00532
G3 X124.392 Y115.705 I.86 J1.355 E.0362
G3 X125.704 Y118.054 I-.105 J1.6 E.11528
G1 X123.807 Y118.054 E.06849
G1 X123.298 Y118.563 E.02601
G3 X122.807 Y116.711 I.999 J-1.256 E.07413
G1 X123.316 Y116.095 E.02885
G1 X123.616 Y116.435 F30000
G1 F3600
G1 X123.808 Y116.272 E.00911
G3 X124.363 Y116.161 I.502 J1.067 E.02063
G3 X125.408 Y117.597 I-.087 J1.161 E.0729
G1 X123.618 Y117.597 E.06462
G1 X123.288 Y117.927 E.01688
G3 X123.328 Y116.687 I1.023 J-.587 E.04716
G1 X123.586 Y116.462 E.01237
G1 X123.877 Y116.769 F30000
G1 F3600
G1 X123.921 Y116.714 E.00256
G3 X124.334 Y116.618 I.419 J.864 E.01544
G3 X125.097 Y117.139 I-.134 J1.014 E.03462
G1 X123.486 Y117.139 E.05817
G1 X123.848 Y116.796 E.01801
G1 E-.56 F2400
;WIPE_START
G1 F3600
G1 X123.921 Y116.714 E-.01327
G1 X124.334 Y116.618 E-.05088
G1 X125.097 Y117.139 E-.1109
G1 X124.556 Y117.139 E-.06495
;WIPE_END
G1 X132.17 Y117.66 Z.6 F30000
G1 X137.921 Y118.054 Z.6
G1 Z.2
G1 E.8 F2400
G1 F3600
G3 X139.429 Y117.346 I1.443 J1.115 E.06247
G3 X140.737 Y118.054 I-.172 J1.881 E.05518
G1 X137.961 Y118.054 E.10024
G1 X137.659 Y117.77 F30000
G1 F3600
G1 X138.122 Y117.279 E.02437
G3 X139.458 Y116.89 I1.209 J1.663 E.05126
G3 X141.337 Y118.511 I-.131 J2.052 E.09618
G1 X137.321 Y118.511 E.14501
G3 X137.595 Y117.84 I2.01 J.431 E.0263
G1 X137.632 Y117.8 E.00197
G1 E-.56 F2400
;WIPE_START
G1 F3600
G1 X138.122 Y117.279 E-.08579
G1 X138.818 Y116.951 E-.09237
G1 X139.331 Y116.902 E-.06184
;WIPE_END
G1 X146.963 Y116.924 Z.6 F30000
G1 X151.197 Y116.936 Z.6
G1 Z.2
G1 E.8 F2400
G1 F3600
G3 X154.489 Y113.799 I3.14 J0 E.18358
G3 X160.021 Y116.471 I-.139 J7.348 E.22882
G3 X161.794 Y119.758 I-4.018 J4.29 E.13723
G3 X161.839 Y121.187 I-3.241 J.817 E.052
G3 X160.746 Y125.576 I-5.775 J.893 E.1677
G2 X158.94 Y127.533 I21.623 J21.769 E.09615
G3 X154.481 Y128.703 I-3.305 J-3.51 E.17355
G3 X151.934 Y126.927 I1.284 J-4.556 E.11423
G3 X152.14 Y124.348 I2.364 J-1.109 E.09771
G1 X152.968 Y124.348 E.0299
G1 X153.318 Y125.03 E.02768
G1 X154.019 Y125.539 E.03129
G1 X155.156 Y125.599 E.0411
G2 X158.123 Y123.685 I-1.35 J-5.351 E.12978
G1 X158.25 Y123.331 E.01358
G2 X158.262 Y120.048 I-1.655 J-1.647 E.13144
G1 X158.19 Y118.867 E.04273
G1 X157.456 Y117.79 E.04708
G2 X152.96 Y117.996 I-2.147 J2.304 E.181
G2 X152.729 Y118.511 I1.648 J1.048 E.02045
G1 X151.621 Y118.511 E.04002
G3 X151.198 Y116.975 I2.716 J-1.575 E.05815
G1 X151.725 Y116.896 F30000
G1 F3600
G1 X151.674 Y116.604 E.0107
G3 X154.459 Y114.256 I2.659 J.329 E.14463
G3 X159.729 Y116.824 I-.21 J7.121 E.21813
G3 X161.302 Y119.702 I-3.429 J3.742 E.12059
G2 X161.471 Y122.302 I297.55 J-18.017 E.09406
G1 X161.476 Y122.479 E.00639
G3 X159.565 Y126.082 I-5.179 J-.438 E.15135
G3 X154.816 Y128.338 I-4.068 J-2.439 E.20119
G3 X152.41 Y126.852 I1.118 J-4.504 E.10377
G3 X152.39 Y124.805 I1.917 J-1.043 E.07695
G1 X152.643 Y124.805 E.00913
G2 X156.684 Y125.436 I2.289 J-1.401 E.16795
G1 X157.055 Y125.245 E.01504
G2 X158.897 Y123.155 I-1.503 J-3.182 E.10344
G1 X159.265 Y122.426 E.02949
G1 X159.389 Y121.619 E.02949
G1 X159.257 Y120.803 E.02982
G1 X158.884 Y120.077 E.02949
G3 X158.757 Y119.779 I.166 J-.247 E.01239
G2 X154.076 Y116.667 I-3.497 J.184 E.23557
G1 X153.191 Y117.055 E.03487
G1 X152.556 Y117.782 E.03487
G2 X152.41 Y118.054 I9.987 J5.559 E.01115
G1 X151.9 Y118.054 E.01841
G1 X151.731 Y116.935 E.04085
G1 X152.16 Y116.954 F30000
G1 F3600
G1 X152.156 Y116.38 E.02073
G3 X154.43 Y114.712 I2.192 J.604 E.10983
G3 X159.32 Y117.085 I.036 J6.152 E.2033
G3 X160.817 Y119.704 I-2.664 J3.259 E.11137
G3 X160.945 Y121.891 I-12.112 J1.807 E.07923
G3 X159.239 Y125.684 I-3.631 J.647 E.15952
G3 X154.958 Y127.903 I-3.736 J-1.969 E.18532
G3 X152.81 Y126.632 I1.228 J-4.525 E.09119
G3 X152.546 Y125.595 I2.3 J-1.14 E.03894
G2 X157.013 Y125.791 I2.348 J-2.51 E.17578
G2 X159.476 Y123.091 I-2.382 J-4.646 E.13479
G2 X159.22 Y119.574 I-3.34 J-1.525 E.1328
G2 X153.501 Y116.363 I-4.034 J.485 E.27559
G2 X152.135 Y117.509 I1.201 J2.818 E.06533
G1 X152.158 Y116.994 E.01861
G1 X153.174 Y116.006 F30000
G1 F3600
G1 X153.005 Y115.747 E.01117
G3 X154.4 Y115.168 I1.3 J1.164 E.05637
G3 X155.917 Y115.318 I.203 J5.722 E.05521
G1 X155.849 Y115.649 E.0122
G2 X153.211 Y115.993 I-.481 J6.585 E.0967
G1 E-.56 F2400
;WIPE_START
G1 F3600
G1 X153.005 Y115.747 E-.03854
G1 X153.656 Y115.29 E-.09539
G1 X154.4 Y115.168 E-.09042
G1 X154.53 Y115.181 E-.01566
;WIPE_END
G1 X153.965 Y117.692 Z.6 F30000
G1 Z.2
G1 E.8 F2400
;TYPE:Support interface
G1 F3600
G3 X155.337 Y117.43 I1.039 J1.721 E.05149
G3 X157.814 Y120.232 I.115 J2.394 E.15486
G3 X157.866 Y122.955 I-1.129 J1.384 E.11186
G3 X155.797 Y124.845 I-2.745 J-.928 E.10561
G3 X153.454 Y124.368 I-.985 J-1.151 E.09945
G1 X155.032 Y124.272 E.05708
G1 X156.085 Y123.754 E.04235
G1 X156.99 Y122.575 E.05368
G1 X157.22 Y121.422 E.04244
G1 X156.835 Y119.989 E.05359
G1 X156.064 Y119.108 E.04225
G1 X155.024 Y118.604 E.04174
G1 X153.213 Y118.501 E.06549
G3 X153.931 Y117.713 I1.792 J.912 E.03896
G1 X154.387 Y118.098 F30000
;WIDTH:0.42
G1 F3600
G2 X154.03 Y118.094 I-.216 J3.231 E.01064
G3 X154.575 Y117.955 I.494 J.798 E.01702
G1 X154.575 Y118.11 E.00463
G3 X155.429 Y118.298 I-.294 J3.374 E.02612
G1 X155.452 Y117.864 E.01294
G2 X156.329 Y118.084 I2.794 J-9.269 E.02695
G1 X156.329 Y118.786 E.02089
G3 X157.181 Y119.753 I-2.283 J2.87 E.03859
G1 X157.206 Y118.813 E.02801
G3 X157.365 Y120.12 I-1.396 J.833 E.04038
G1 X157.289 Y119.966 E.00509
G1 E-.56 F2400
;WIPE_START
G1 F3600
G1 X157.365 Y120.12 E-.02051
G1 X157.42 Y119.409 E-.08551
G1 X157.206 Y118.813 E-.07603
G1 X157.193 Y119.296 E-.05796
;WIPE_END
G1 X159.656 Y119.505 Z.6 F30000
G1 Z.2
G1 E.8 F2400
;TYPE:Support
;WIDTH:0.5
G1 F3600
G1 X159.395 Y118.164 E.04931
G1 X159.666 Y118.013 E.01122
G1 X159.777 Y118.153 E.00644
G3 X160.519 Y120.762 I-12.165 J4.871 E.0981
G1 X160.209 Y120.801 E.01128
G3 X159.724 Y119.605 I7.726 J-3.831 E.04665
G1 X159.679 Y119.538 E.00292
G1 X160.235 Y122.32 F30000
G1 F3600
G1 X160.565 Y122.361 E.01201
G3 X159.258 Y125.023 I-2.933 J.211 E.1122
G1 X159.044 Y124.809 E.01092
G2 X160.221 Y122.357 I-12.027 J-7.282 E.09834
G1 X158.569 Y125.363 F30000
G1 F3600
G1 X158.806 Y125.535 E.01058
G3 X154.986 Y127.427 I-3.253 J-1.764 E.16403
G3 X154.785 Y127.037 I.006 J-.25 E.01934
G2 X158.537 Y125.386 I-1.761 J-9.089 E.14925
G1 E-.56 F2400
;WIPE_START
G1 F3600
G1 X158.806 Y125.535 E-.03686
G1 X158.229 Y126.349 E-.11983
G1 X157.632 Y126.705 E-.08331
;WIPE_END
G1 X157.306 Y123.362 Z.6 F30000
G1 Z.2
G1 E.8 F2400
;TYPE:Support interface
;WIDTH:0.42
G1 F3600
G2 X157.493 Y122.713 I-1.674 J-.832 E.02023
G2 X157.503 Y120.509 I-.802 J-1.105 E.07636
G3 X157.372 Y122.744 I-3.192 J.935 E.068
G3 X156.332 Y124.127 I-1.629 J-.143 E.05431
G1 X156.329 Y124.093 E.00101
G3 X156.151 Y124.214 I-1.014 J-1.297 E.00642
G1 X156.16 Y124.211 E.00028
G1 X155.452 Y124.573 F30000
G1 F3600
G3 X154.575 Y124.784 I-.845 J-1.583 E.02716
G1 X154.575 Y124.768 E.00048
G1 E-.56 F2400
;WIPE_START
G1 F3600
G1 X154.575 Y124.784 E-.0042
G1 X155.452 Y124.573 E-.2358
;WIPE_END
G1 X147.915 Y123.365 Z.6 F30000
G1 X125.648 Y119.796 Z.6
G1 Z.2
G1 E.8 F2400
;TYPE:Inner wall
;WIDTH:0.499999
G1 F3600
G1 X154.136 Y119.796 E1.02858
G1 X154.713 Y119.858 E.02094
G1 X155.112 Y120.023 E.0156
G1 X155.447 Y120.281 E.01526
